X:36
T: Karjalan Katjuusa
C: Blanter Matvej Isaakovich
Z:Glenn Lee
O: Finland / Karelia
M: 2/4
L: 1/8
Q:1/4=120
K: Am
%P:A
|: "Am"A A2 B | c2 A>A | Ac  BA | "E7"B^G E2 |
B B2 c | d2 B>B | Bd cB |"Am"A4 :|
%P:B
|:"Am"e2 a2 | "G"g2 a2 | z "Dm"f ed | "Am"e2 A2 | z "Dm"d cB | "Am"c2 A>A | "E7"Bd cB | "Am"A4:|
%P:C
K:A
"A"c3 d | e3 c | ef ga |"E7"a2 g2 | B3 c | d3 e |
gf ed | "A"c4 | c3 d | e3 c | ef ga | "E7"a2 g2 |
B3 c | d3 e | fe fg | [Acea][A/cea][A/cea] [A2cea] |]

